dist/icons/svgs/location-dot-outline.svg

<svg xmlns="http://www.w3.org/2000/svg" width="24" height="24" fill="currentcolor" class="icon-location-dot-outline" viewBox="0 0 24 24">
  <path d="M18.125 9.5C18.125 6.41406 15.5859 3.875 12.5 3.875C9.375 3.875 6.875 6.41406 6.875 9.5C6.875 10.0078 7.03125 10.75 7.46094 11.7656C7.85156 12.7031 8.4375 13.7969 9.10156 14.8906C10.2344 16.6875 11.5234 18.4062 12.5 19.6562C13.4375 18.4062 14.7266 16.6875 15.8594 14.8906C16.5234 13.7969 17.1094 12.7031 17.5 11.7656C17.9297 10.75 18.125 10.0078 18.125 9.5ZM20 9.5C20 12.9375 15.4297 18.9922 13.3984 21.5312C12.9297 22.1172 12.0312 22.1172 11.5625 21.5312C9.57031 18.9922 5 12.9375 5 9.5C5 5.35938 8.35938 2 12.5 2C16.6406 2 20 5.35938 20 9.5ZM13.75 9.5C13.75 8.83594 13.1641 8.25 12.5 8.25C11.7969 8.25 11.25 8.83594 11.25 9.5C11.25 10.2031 11.7969 10.75 12.5 10.75C13.1641 10.75 13.75 10.2031 13.75 9.5ZM9.375 9.5C9.375 8.40625 9.96094 7.39062 10.9375 6.80469C11.875 6.25781 13.0859 6.25781 14.0625 6.80469C15 7.39062 15.625 8.40625 15.625 9.5C15.625 10.6328 15 11.6484 14.0625 12.2344C13.0859 12.7812 11.875 12.7812 10.9375 12.2344C9.96094 11.6484 9.375 10.6328 9.375 9.5Z"/>
</svg>

<svg xmlns="http://www.w3.org/2000/svg" width="24" height="24" fill="currentColor" class="icon-location-dot-outline" viewBox="0 0 24 24">
  <path d="M18.125 9.5c0-3.086-2.54-5.625-5.625-5.625A5.626 5.626 0 0 0 6.875 9.5c0 .508.156 1.25.586 2.266.39.937.976 2.03 1.64 3.125 1.133 1.797 2.422 3.515 3.399 4.765.938-1.25 2.227-2.968 3.36-4.765.663-1.094 1.25-2.188 1.64-3.125.43-1.016.625-1.758.625-2.266M20 9.5c0 3.438-4.57 9.492-6.602 12.031a1.178 1.178 0 0 1-1.835 0C9.57 18.992 5 12.938 5 9.5 5 5.36 8.36 2 12.5 2S20 5.36 20 9.5m-6.25 0c0-.664-.586-1.25-1.25-1.25-.703 0-1.25.586-1.25 1.25 0 .703.547 1.25 1.25 1.25.664 0 1.25-.547 1.25-1.25m-4.375 0c0-1.094.586-2.11 1.563-2.695.937-.547 2.148-.547 3.124 0C15 7.39 15.626 8.406 15.626 9.5c0 1.133-.625 2.148-1.562 2.734-.977.547-2.188.547-3.126 0A3.16 3.16 0 0 1 9.376 9.5"/>
</svg>
